X: 38
T: Portsmouth Review
R: reel
M: C
L: 1/8
Z: 2011 John Chambers <jc:trillian.mit.edu>
B: Charles & Samuel Thompson eds "Twenty Four Country Dances", London 1774, p.19 #2
K: D
% - - - - - - - - - - - - - - - - - - - - - - - - -
   A |\
d2AF GEcA | Bgec d/c/d/e/ dA |\
d2AF GEcd | cBA^G A3 :|
|: A |\
e2cA eAfA | fa {g}fe/d/ e/d/c/B/ A>A |\
e2cA Bbag | fe/d/ ed/c/ d3 :|
% - - - - - - - - Dance description - - - - - - - -
%%begintext align
%% Half right & Left .|. & back again :|.
%% cast off hands 4 with the 3d Cu. .|:
%% Right & Left at top :|:
%%endtext

%%sep 1 1 500
